X:SSF 13-19 105
T:Hogmanay Jig
O:Scotland
C:Andrew Rankine
B:Carlin, Master Collection, 1984
M:6/8
K:D
P:A
de| fgf fgf e2d d2e fgf fed c2B B3 cdc cde B2A A3 |1,3 Ace a2g g2f f :|2,4 Ace agc d3-d :|
P:B
de| fgf efe ded cdc BcB BAB c2B A3 gag fgf efe ded |1,3 cdc BcB A3-A :|2,4 cBA ABc d3-d :|

